X:138
T:L'autrier, just'una sebissa
C:Marcabru
L:1/4
K:C
c | c2c | c2e | g(f/g/f/e/) | dzc | B2A | B2c | B>(AB) |
czc | c2c | c2e | g(f/g/f/e/) | dzc | B2A | B2c | B>(AB) |
czc | c2c | B>(AB) | c>(BA) | Gzc | c2c | B>(AB) |
c>(BA) | GzG | (A>B)d | e2d | c>(BG) | A>(BA/G/ | A2) |]







